X:666
T:Mr. Gray of Carse
R:Reel
B:The Athole Collection
M:C|
L:1/8
K:C
a|g2ec d2BG|c2GE FDDa|g2ec d2BG|cGAF ECC:|
F|E/F/G Gc AcGc|FcEc dDDF|E/F/G Gc AcGc|EGcG ECCF|
E/F/G Gc AcGc|FcEc dDDF|EGce FAdf|gedf ecc||

